X:553
T:Miss Louisa Duff
R:Reel
C:William Marshall
B:The Athole Collection
M:C|
L:1/8
K:G Minor
~B2 GB DGBG|A2 Fc AFcA|~B2 GB DGBG|AG^FA G/G/G G2:|
dgga bgaf|cffg afge|1 dgga bgaf|ag^fa g/g/g g2:|2 defg fdcB|AG^FA G/G/G G2||

